!!!COM: Palestrina, Giovanni Perluigi da
!!!OPR: Missa In majoribus duplicibus
!!!OMD: Sanctus
!!!OTL: Pleni
**kern	**kern	**kern
*Itenor	*Icalto	*Icant
!Tenor	!Altus	!Cantus
*clefGv2	*clefG2	*clefG2
*k[]	*k[]	*k[]
*?:X	*?:X	*?:X
*M4/2	*M4/2	*M4/2
=37	=37	=37
2.F	0r	0f
4G	.	.
2A	.	.
2B-	.	.
=38	=38	=38
4F	2.c	0a
4G	.	.
4A	.	.
4B-	4d	.
2c	2e	.
2d	2f	.
=39	=39	=39
2e	4c	1g
.	4d	.
4c	4e	.
4d	4f	.
4e	4g	1g
4f	4a	.
2g	2b-	.
=40	=40	=40
2f	2a	1cc
2e	2g	.
2.f	1a	1cc
4e	.	.
=41	=41	=41
4d	1f	1dd
4c	.	.
2d	.	.
1G	2r	1dd
.	4g	.
.	4f	.
=42	=42	=42
0r	4g	2.dd
.	4a	.
.	1b-	.
.	.	4cc
.	.	4dd
.	.	4ee
.	4a	[2ff
.	4g	.
=43	=43	=43
0r	2f	4ff]
.	.	4ee
.	2g	1dd
.	1e	.
.	.	2cc#
=44	=44	=44
2r	1d	1dd
4d	.	.
4c	.	.
4d	2r	[1a
4e	.	.
[2f	4d	.
.	4c	.
=45	=45	=45
4f]	4d	1a]
4e	4e	.
1d	2f	.
.	1e	1r
2c#	.	.
=46	=46	=46
2d	1d	2r
4G	.	4g
4A	.	4f
4B-	2r	4g
4c	.	4a
2d	4G	[2b-
.	4A	.
=47	=47	=47
2.G	4B-	4b-]
.	4c	4a
.	2d	1g
4B-	.	.
1A	1c	.
.	.	2f#
=48	=48	=48
1G	2d	2g
.	4g	4b-
.	4f	4a
2r	4g	4b-
.	4a	4cc
[2g	[2b-	2dd
=49	=49	=49
4g]	4b-]	2.g
4f	4a	.
4e	1g	.
4d	.	4b-
2c	.	1a
2d	2f#	.
=50	=50	=50
2.G	0g	2g
.	.	2.gg
4A	.	.
2B	.	.
.	.	4ff
[2c	.	4ee
.	.	4dd
=51	=51	=51
2c]	2r	2cc
2B	2.g	2dd
1c	.	1g
.	4f	.
.	4e	.
.	4d	.
=52	=52	=52
1r	2c	1a
.	2d	.
2r	4G	[1b-
.	4A	.
4G	4B-	.
4A	4c	.
=53	=53	=53
4B-	4d	2b-]
4c	4e	.
2d	1f	2a
2B-	.	1g
2c	2e	.
=54	=54	=54
4d	1f	4f
4e	.	4g
1f	.	4a
.	.	4f
.	2r	1g
2e	[2cc	.
=55	=55	=55
2.f	4cc]	0r
.	4b-	.
.	4a	.
4e	4g	.
2d	2f	.
4c	2g	.
4B-	.	.
=56	=56	=56
4A	1c	1r
4B-	.	.
1c	.	.
.	1d	2r
2B	.	[2gg
=57	=57	=57
2.c	1e	4gg]
.	.	4ff
.	.	4ee
4B-	.	4dd
2A	[1f	2cc
2B-	.	2dd
=58	=58	=58
1c	2f]	1g
.	2e	.
1F	2d	1a
.	2c	.
=59	=59	=59
1G	4B-	1b-
.	4c	.
.	4d	.
.	4e	.
1r	4f	2a
.	4d	.
.	4e	4g
.	4f	4a
=60	=60	=60
2r	4g	4b-
.	4a	4cc
2.g	2.b-	2dd
.	.	2g
4f	4a	.
4e	4g	[2gg
4d	4b-	.
=61	=61	=61
2c	1a	2gg]
2d	.	2ff
1G	2.g	2ee
.	.	[2dd
.	4f	.
=62	=62	=62
1A	1e	2dd]
.	.	2cc#
[1B-	2d	1dd
.	2G	.
=63	=63	=63
2B-]	2B-	2g
2A	2c	2a
[1G	2.d	[1b-
.	4c	.
=64	=64	=64
1G]	2d	1b-]
.	2e	.
[1F	[1f	[1a
=65	=65	=65
1F]	1f]	1a]
*-	*-	*-
!!!CDT: 1525/^1526/-1594/2/2
!!!OCY: Italia
!!!AGN: Mass (Paraphrase)
!!!AST: renaissance, vocal
!!!ASW: Gregorian Mass
!!!PWK: Masses, Book 7
!!!RNB: Cadence finals: E,C,G,D,F
!!!YOR: Le Opere Complete, v. 23, p. 149
!!!YOO: Rome, Italy: Fratelli Scalera
!!!END: 1992//
!!!EED: John Miller
!!!YEC: Copyright 2000, John Miller
!!!YEN: United States of America
!!!YEM: Rights to all derivative electronic formats reserved.
!!!YEM: Refer to licensing agreement for further details.
!!!YEM: This file must be accompanied by the licensing agreement.
!!!YEM: A copy of the licensing agreement may be found at http://www.music-cog.ohio-state.edu/HumdrumDatabases/Palestrina/license.txt
!!!EMD: converted to Humdrum by Bret Aarden
